X: 23
T:Chicken Pecking
T:Earl Grey
M:4/4
L:1/4
Q:112
Z:Brian Martin <brian_martin12345@yahoo.com> Winterbourn Downs Morris  (rcvd Jan 2003)
K:G
G>AGD | EGDB | cAc/B/A/G/ | FAAB/A/ | G>AGD | EGDB | cede/f/ |1 gGG2 :|2 gGG |]
((3d/e/f/) | gGfG | eGdG | cA c/B/A/G/ | FAA((3d/e/f/) | gGfG | eGdG | ced e/f/ | gGG2 |]
